X:1
T:Title
%%score { ( 1 3 ) | ( 2 4 ) }
L:1/8
Q:1/4=100
M:4/4
K:Db
V:1 treble nm="Grand Piano"
V:3 treble 
V:2 bass 
V:4 bass 
V:1
 [FA]>[GB] [FA]>[DF] [Fd]2 F2 | A4 G4 | [EG]>[FA] [EG]>[CE] [Gc]2 [CGB]2 | [FA]6 z2 | %4
w: James~M.~Black * * * * *||||
 [FA]>[GB] [FA]>[DF] [Fd]2 [FA]2 | [GB]4 [Gd]4 | [=Ge]>[Ge] [Gd]>[Gd] [EGc]2 [DGB]2 | %7
w: |||
[M:3/4] z z/ A/- A4 |[M:1/4] A>A |[M:4/4] d6 z2 | [FA]2 [GB]2 z z/ D/ A>A | B6 z2 | [FA]6 z2 | %13
w: ||||||
 f6 z2 | e2 d2 B2 G2 | z2 [FA]4 z2 |[M:7/8] d->[Fd-][Gd-]>[Gd-] [Fd]3 |] %17
w: ||||
V:2
 [D,D]>[D,D] [D,D]>[D,A,] [D,A,]2 [D,A,D]2 | [E,A,C]4 [E,A,C]4 | %2
 [A,,A,]>[A,,A,] [A,,A,]>[A,,A,] [A,,A,]2 A,,2 | [D,D]6 z2 | %4
 [D,D]>[D,D] [D,D]>[D,A,] [D,A,]2 [D,D]2 | [G,D]4 [G,B,]4 | [E,D]>[E,D] [E,B,]>[E,B,] E,2 E,2 | %7
[M:3/4] z z/[K:treble] C/ C>D E2 |[M:1/4] G>G |[M:4/4] F6[K:bass] z2 | %10
 [D,D]>[D,D] [D,D]>[D,D] [D,D]>D,[K:treble] F>F | G6[K:bass] z2 | D,>D, D,>D, D,2[K:treble] F>F | %13
 A6[K:bass] z2 | [G,B,G]2 [G,B,G]2 [G,DG]2 [G,B,E]2 | A,>A, A,>A, A,,>[A,,A,] [A,,A,]>[A,,A,] | %16
[M:7/8] A,2 z z z z2 |] %17
V:3
 x8 | x8 | x8 | x8 | x8 | x8 | x8 |[M:3/4] [CA]2 E>F G2 |[M:1/4] x2 | %9
[M:4/4] z2 A,>A, A,>[Ge] [Fd]>[GB] | z4 [FA]2 z2 | z2 D>D D>[DBd] [DAc]>[DGB] | D>D D>D D2 A>d | %13
 z2 D>D D>[Ae] [Ad]>[Ac] | x8 | [DF]2 D>D A,>[FA] [GB]>[Gc] |[M:7/8] F2 z z z z2 |] %17
V:4
 x8 | x8 | x8 | x8 | x8 | x8 | x8 |[M:3/4] A,6[K:treble] |[M:1/4] x2 | %9
[M:4/4] z2[K:bass] D,>D, D,>[D,A,] [D,A,]>[D,D] | x6[K:treble] x2 | z2[K:bass] G,>G, G,>G, G,>G, | %12
 x6[K:treble] x2 | z2[K:bass] D,>D, D,>[E,C] [F,D]>[F,D] | x8 | x8 | %16
[M:7/8] D,->[D,-A,][D,-B,]>[D,-B,] [D,A,]3 |] %17

